HelpDesk_TicketSystem/ClientApp/src/assets/images/vector-5.svg

<svg width="423" height="279" viewBox="0 0 423 279" fill="none" xmlns="http://www.w3.org/2000/svg">
<path d="M304.255 257.281C304.586 257.412 304.944 257.488 305.31 257.504C305.675 257.519 306.041 257.474 306.386 257.371C306.73 257.268 307.048 257.109 307.319 256.903C307.591 256.697 307.812 256.448 307.969 256.171C308.126 255.893 308.216 255.592 308.235 255.285C308.253 254.978 308.2 254.671 308.077 254.382C307.954 254.092 307.765 253.826 307.519 253.598C307.274 253.37 306.977 253.184 306.647 253.052C305.388 252.63 303.626 252.947 302.87 254.215C302.619 255.378 303.122 256.646 304.255 257.386V257.281ZM141.868 160.034C143.127 160.563 144.889 160.14 145.645 158.977C146.148 157.92 145.645 156.44 144.26 155.806C143.001 155.383 141.239 155.7 140.484 156.969C139.98 158.026 140.484 159.505 141.868 160.14V160.034ZM254.154 149.992C254.81 150.19 255.531 150.172 256.172 149.943C256.813 149.714 257.328 149.291 257.614 148.757C257.9 148.224 257.936 147.619 257.715 147.065C257.493 146.51 257.031 146.045 256.42 145.764C255.161 145.236 253.399 145.658 252.644 146.821C252.14 147.878 252.644 149.358 254.154 149.992ZM207.452 221.976C208.711 222.399 210.348 222.082 211.103 220.813C211.606 219.756 211.103 218.276 209.718 217.642C208.459 217.219 206.697 217.642 205.942 218.91C205.438 219.967 205.942 221.13 207.452 221.976ZM144.26 209.609C145.519 210.031 147.281 209.609 148.036 208.446C148.54 207.389 148.036 205.909 146.652 205.275C145.393 204.852 143.631 205.275 142.875 206.438C142.624 207.6 143.001 209.08 144.26 209.609ZM43.6808 125.046C44.3485 125.313 45.1149 125.345 45.8113 125.137C46.5077 124.929 47.0771 124.497 47.3943 123.937C47.7115 123.376 47.7504 122.732 47.5025 122.148C47.2547 121.563 46.7403 121.085 46.0726 120.818C45.4048 120.552 44.6385 120.519 43.9421 120.727C43.2457 120.936 42.6762 121.367 42.3591 121.928C42.0419 122.489 42.003 123.132 42.2509 123.717C42.4987 124.302 43.0131 124.78 43.6808 125.046V125.046ZM253.399 39.3215C254.658 39.7443 256.42 39.3215 257.176 38.1587C257.679 37.1017 257.175 35.6219 255.665 34.9877C254.406 34.5648 252.77 34.9877 252.014 36.2561C251.511 37.3131 252.266 38.5815 253.399 39.3215V39.3215ZM68.6053 77.7973C69.3606 78.1144 69.8641 78.0087 70.7453 77.6916C71.6265 77.2688 72.13 76.8459 72.6335 76.0003C74.6476 72.7235 76.7876 69.8696 78.9276 66.4871C79.6829 65.1129 79.4311 63.316 77.9205 62.7875C76.41 62.259 74.7735 62.9989 73.8923 64.5844C71.7523 67.8612 69.8641 70.9266 67.5983 74.0977L67.3465 74.3091C66.5912 75.7889 67.3465 77.3745 68.6053 77.7973V77.7973Z" fill="white"/>
<path d="M65.2065 69.6581L71.7523 72.195C72.7594 72.5121 73.7665 72.9349 74.8994 73.5691L77.2911 74.7319C78.1355 75.0029 78.9748 75.2848 79.8088 75.5775C80.4382 75.5775 81.1934 75.2604 81.8229 74.7319C82.4523 74.2033 82.5781 73.6748 82.4523 72.9349C82.4523 72.4064 82.2005 71.8779 81.5711 71.3494C80.9417 70.8209 80.1864 70.5038 79.557 70.0809L77.7947 69.341C76.7876 69.0239 75.9064 68.284 74.8994 67.9669L68.1018 65.43C66.843 64.9015 65.2065 65.3243 64.4512 66.487C63.1924 67.5441 63.6959 69.1296 65.2065 69.6581V69.6581ZM58.2831 0.951323C58.6607 1.05703 59.2901 1.05703 59.2901 0.845621C59.416 0.634216 59.416 0.105703 59.2901 0L58.1572 0.105701C58.1572 0.317107 58.1572 0.84562 58.4089 0.951323H58.2831ZM69.1089 24.9459C69.3606 25.0516 69.99 25.0516 70.1159 24.9459C70.1159 24.6287 70.1159 24.1002 69.8641 23.9945C69.6124 23.9945 69.1088 23.9945 68.983 24.2059V24.9459H69.1089ZM0.125889 18.498C0.377652 18.6037 1.00705 18.498 1.13293 18.3923L1.00705 17.5467L0 17.6524L0.125889 18.498ZM0.881175 48.9404C1.13294 49.0461 1.76234 48.9404 1.88822 48.8347C1.88822 48.6233 1.88822 48.0948 1.63646 47.9891L0.755296 48.0948C0.629414 48.3062 0.629414 48.8347 0.755296 48.9404H0.881175ZM291.667 238.888C293.429 239.628 295.443 239.1 296.199 237.62C297.08 236.14 296.45 234.449 294.688 233.709C293.052 233.075 290.912 233.497 290.156 234.977C289.275 236.457 289.905 238.148 291.667 238.888ZM46.702 9.61895C47.4573 9.83036 48.2126 9.61895 48.5902 8.98474C48.9678 8.35052 48.5902 7.7163 47.9608 7.5049C47.2055 7.18779 46.4502 7.5049 46.0726 8.03341C45.6949 8.66763 46.1985 9.40754 46.702 9.61895ZM184.164 83.5052C184.794 83.8223 185.423 83.5052 185.927 82.9767C186.178 82.3425 185.927 81.7082 185.171 81.3911C184.416 81.074 183.661 81.3911 183.409 82.0254C183.031 82.6596 183.409 83.1881 184.038 83.5052H184.164ZM325.151 249.036C326.06 249.389 327.042 249.587 328.042 249.618C329.042 249.65 330.04 249.514 330.977 249.219C331.913 248.924 332.771 248.475 333.5 247.899C334.229 247.324 334.814 246.632 335.222 245.865C336.984 242.694 335.725 238.994 331.697 237.408C330.797 237.052 329.821 236.849 328.827 236.81C327.832 236.771 326.839 236.898 325.903 237.183C324.967 237.468 324.107 237.905 323.374 238.47C322.64 239.035 322.046 239.716 321.627 240.474C320.116 243.645 321.375 247.556 325.151 248.93V249.036ZM416.793 278.632C418.807 279.478 421.199 278.844 422.206 276.941C423.087 275.25 422.458 273.242 420.192 272.29C419.692 272.082 419.145 271.964 418.587 271.942C418.03 271.921 417.473 271.997 416.952 272.166C416.431 272.335 415.958 272.593 415.562 272.924C415.166 273.255 414.857 273.651 414.653 274.087C414.024 275.884 414.905 277.681 416.793 278.632ZM303.5 154.749L303.752 155.806C304.003 156.44 304.507 157.18 305.262 157.709L307.025 158.766L308.661 160.034C309.92 160.774 311.179 161.62 312.186 162.465L315.459 164.579C316.214 164.896 316.843 165.425 317.599 165.848L319.864 167.116C321.119 167.847 322.422 168.518 323.767 169.124C324.752 169.573 325.871 169.772 326.988 169.697C328.106 169.622 329.173 169.276 330.061 168.702C331.194 167.962 331.571 167.539 332.201 166.588C332.704 165.953 332.83 165.213 333.082 164.474C333.286 163.924 333.413 163.356 333.46 162.782V157.603L333.585 156.229V151.895C333.585 150.626 333.585 149.464 333.334 148.195L333.208 146.504C333.082 145.87 332.956 145.236 332.578 144.601C332.201 143.756 331.571 143.016 330.69 142.382C329.84 141.736 328.795 141.297 327.669 141.113C326.41 141.007 325.277 141.113 324.144 141.43C323.011 141.747 322.004 142.276 320.871 142.699L318.606 143.967L317.347 144.601L316.214 145.236L313.57 146.293L311.682 146.927C311.022 147.158 310.39 147.441 309.794 147.772L309.542 147.984L308.661 148.407L308.032 148.83L306.773 149.569L305.262 150.838L304.885 151.261C304.492 151.669 304.193 152.135 304.003 152.635V152.423L303.5 153.798V154.855V154.749ZM323.263 159.717L320.871 158.237C318.935 156.947 317.046 155.607 315.207 154.22L315.333 154.115L317.095 153.48L319.109 152.741L322.13 151.366L323.893 150.309L324.396 150.204V154.326L324.522 155.912V160.457L323.263 159.717V159.717Z" fill="white"/>
</svg>

<svg width="423" height="279" fill="none" xmlns="http://www.w3.org/2000/svg"><path d="M304.255 257.281a3.259 3.259 0 0 0 2.131.09c.344-.103.662-.262.933-.468.272-.206.493-.455.65-.732a2 2 0 0 0 .108-1.789 2.292 2.292 0 0 0-.558-.784 2.813 2.813 0 0 0-.872-.546c-1.259-.422-3.021-.105-3.777 1.163-.251 1.163.252 2.431 1.385 3.171v-.105Zm-162.387-97.247c1.259.529 3.021.106 3.777-1.057.503-1.057 0-2.537-1.385-3.171-1.259-.423-3.021-.106-3.776 1.163-.504 1.057 0 2.536 1.384 3.171v-.106Zm112.286-10.042a3.26 3.26 0 0 0 2.018-.049c.641-.229 1.156-.652 1.442-1.186a1.983 1.983 0 0 0 .101-1.692c-.222-.555-.684-1.02-1.295-1.301-1.259-.528-3.021-.106-3.776 1.057-.504 1.057 0 2.537 1.51 3.171Zm-46.702 71.984c1.259.423 2.896.106 3.651-1.163.503-1.057 0-2.537-1.385-3.171-1.259-.423-3.021 0-3.776 1.268-.504 1.057 0 2.22 1.51 3.066Zm-63.192-12.367c1.259.422 3.021 0 3.776-1.163.504-1.057 0-2.537-1.384-3.171-1.259-.423-3.021 0-3.777 1.163-.251 1.162.126 2.642 1.385 3.171ZM43.68 125.046a3.275 3.275 0 0 0 2.131.091c.697-.208 1.266-.64 1.583-1.2a2 2 0 0 0 .108-1.789c-.247-.585-.762-1.063-1.43-1.33a3.282 3.282 0 0 0-2.13-.091c-.696.209-1.266.64-1.583 1.201a2 2 0 0 0-.108 1.789c.248.585.762 1.063 1.43 1.329ZM253.4 39.321c1.259.423 3.021 0 3.777-1.162.503-1.057-.001-2.537-1.511-3.171-1.259-.423-2.895 0-3.651 1.268-.503 1.057.252 2.325 1.385 3.066ZM68.605 77.797c.756.317 1.26.212 2.14-.105.881-.423 1.385-.846 1.888-1.692 2.015-3.276 4.155-6.13 6.295-9.513.755-1.374.503-3.171-1.007-3.7-1.511-.528-3.148.212-4.029 1.797-2.14 3.277-4.028 6.343-6.294 9.514l-.251.211c-.756 1.48 0 3.066 1.258 3.488Z" fill="#fff"/><path d="m65.207 69.658 6.545 2.537a16.36 16.36 0 0 1 3.147 1.374l2.392 1.163c.844.27 1.684.553 2.518.846.63 0 1.384-.318 2.014-.846.63-.529.755-1.057.63-1.797 0-.529-.252-1.057-.882-1.586-.63-.528-1.385-.845-2.014-1.268l-1.762-.74c-1.007-.317-1.889-1.057-2.896-1.374l-6.797-2.537c-1.259-.529-2.895-.106-3.65 1.057-1.26 1.057-.756 2.643.755 3.171ZM58.283.951c.378.106 1.007.106 1.007-.105.126-.212.126-.74 0-.846l-1.133.106c0 .211 0 .74.252.845h-.126ZM69.11 24.946c.252.106.881.106 1.007 0 0-.317 0-.846-.252-.952-.252 0-.755 0-.881.212v.74h.126ZM.126 18.498c.252.106.881 0 1.007-.106l-.126-.845L0 17.652l.126.846ZM.88 48.94c.252.106.881 0 1.007-.105 0-.212 0-.74-.252-.846l-.88.106c-.127.211-.127.74 0 .845H.88Zm290.786 189.948c1.762.74 3.776.212 4.532-1.268.881-1.48.251-3.171-1.511-3.911-1.636-.634-3.776-.212-4.532 1.268-.881 1.48-.251 3.171 1.511 3.911ZM46.702 9.619c.755.211 1.51 0 1.888-.634.378-.634 0-1.269-.63-1.48-.755-.317-1.51 0-1.887.528-.378.635.126 1.375.629 1.586Zm137.462 73.886c.63.317 1.259 0 1.763-.528.251-.635 0-1.269-.756-1.586-.755-.317-1.51 0-1.762.634-.378.635 0 1.163.629 1.48h.126Zm140.987 165.531a8.751 8.751 0 0 0 2.891.582c1 .032 1.998-.104 2.935-.399a7.898 7.898 0 0 0 2.523-1.32 6.482 6.482 0 0 0 1.722-2.034c1.762-3.171.503-6.871-3.525-8.457a8.756 8.756 0 0 0-2.87-.598 8.869 8.869 0 0 0-2.924.373 7.92 7.92 0 0 0-2.529 1.287 6.534 6.534 0 0 0-1.747 2.004c-1.511 3.171-.252 7.082 3.524 8.456v.106Zm91.642 29.596c2.014.846 4.406.212 5.413-1.691.881-1.691.252-3.699-2.014-4.651a4.737 4.737 0 0 0-3.24-.124 4.172 4.172 0 0 0-1.39.758 3.403 3.403 0 0 0-.909 1.163c-.629 1.797.252 3.594 2.14 4.545ZM303.5 154.749l.252 1.057a4.341 4.341 0 0 0 1.51 1.903l1.763 1.057 1.636 1.268c1.259.74 2.518 1.586 3.525 2.431l3.273 2.114c.755.317 1.384.846 2.14 1.269l2.265 1.268a42.186 42.186 0 0 0 3.903 2.008 6.72 6.72 0 0 0 3.221.573 6.475 6.475 0 0 0 3.073-.995c1.133-.74 1.51-1.163 2.14-2.114.503-.635.629-1.375.881-2.114.204-.55.331-1.118.378-1.692v-5.179l.125-1.374v-4.334c0-1.269 0-2.431-.251-3.7l-.126-1.691c-.126-.634-.252-1.268-.63-1.903-.377-.845-1.007-1.585-1.888-2.219-.85-.646-1.895-1.085-3.021-1.269a9.73 9.73 0 0 0-3.525.317c-1.133.317-2.14.846-3.273 1.269l-2.265 1.268-1.259.634-1.133.635-2.644 1.057-1.888.634c-.66.231-1.292.514-1.888.845l-.252.212-.881.423-.629.423-1.259.739-1.511 1.269-.377.423a4.07 4.07 0 0 0-.882 1.374v-.212l-.503 1.375v1.057-.106Zm19.763 4.968-2.392-1.48a118.872 118.872 0 0 1-5.664-4.017l.126-.105 1.762-.635 2.014-.739 3.021-1.375 1.763-1.057.503-.105v4.122l.126 1.586v4.545l-1.259-.74Z" fill="#fff"/></svg>
